.local/share/icons/Gruvbox-Plus-Dark/panel/24/wechat-tray.svg

<svg xmlns="http://www.w3.org/2000/svg" width="24" height="24" version="1.1">
 <defs>
  <style id="current-color-scheme" type="text/css">
   .ColorScheme-Text { color:#ebdbb2; } .ColorScheme-Highlight { color:#458588; }
  </style>
 </defs>
 <path style="fill:currentColor" class="ColorScheme-Text" d="m 11,4 a 7,6.5 0 0 0 -7,6.5 7,6.5 0 0 0 2,4.546875 L 6,18 7.3203125,16.019531 a 7,6.5 0 0 0 2.2617187,0.833985 C 9.2131044,16.143061 9,15.348082 9,14.5 9,12.060117 10.723042,10.045383 13.048829,9.306641 A 1,1 0 0 1 12.999999,9 a 1,1 0 0 1 1,-1 1,1 0 0 1 1,1 c 1.061383,0 2.066598,0.261952 2.943359,0.716797 A 7,6.5 0 0 0 10.999999,4 Z M 8,8 A 1,1 0 0 1 9,9 1,1 0 0 1 8,10 1,1 0 0 1 7,9 1,1 0 0 1 8,8 Z m 7,2 A 5,4.5 0 0 0 9.9999996,14.5 5,4.5 0 0 0 15,19 5,4.5 0 0 0 17.810547,18.216797 L 19,20 19,17.191406 A 5,4.5 0 0 0 20,14.5 5,4.5 0 0 0 15,10 Z m -2,2 a 1,1 0 0 1 1,1 1,1 0 0 1 -1,1 1,1 0 0 1 -1,-1 1,1 0 0 1 1,-1 z m 4,0 a 1,1 0 0 1 1,1 1,1 0 0 1 -1,1 1,1 0 0 1 -1,-1 1,1 0 0 1 1,-1 z"/>
</svg>

<svg width="24" height="24" version="1.1" xmlns="http://www.w3.org/2000/svg">
  <defs>
    <style id="current-color-scheme" type="text/css">.ColorScheme-Text { color:#ebdbb2; } .ColorScheme-Highlight { color:#458588; } .ColorScheme-NeutralText { color:#fe8019; } .ColorScheme-PositiveText { color:#689d6a; } .ColorScheme-NegativeText { color:#fb4934; }</style>
  </defs>
  <path class="ColorScheme-Text" d="m11 4a7 6.5 0 0 0-7 6.5 7 6.5 0 0 0 2 4.547v2.953l1.32-1.98a7 6.5 0 0 0 2.262 0.834c-0.3689-0.7105-0.582-1.505-0.582-2.354 0-2.44 1.723-4.455 4.049-5.193a1 1 0 0 1-0.04883-0.3066 1 1 0 0 1 1-1 1 1 0 0 1 1 1c1.061 0 2.067 0.262 2.943 0.7168a7 6.5 0 0 0-6.943-5.717zm-3 4a1 1 0 0 1 1 1 1 1 0 0 1-1 1 1 1 0 0 1-1-1 1 1 0 0 1 1-1zm7 2a5 4.5 0 0 0-5 4.5 5 4.5 0 0 0 5 4.5 5 4.5 0 0 0 2.811-0.7832l1.189 1.783v-2.809a5 4.5 0 0 0 1-2.691 5 4.5 0 0 0-5-4.5zm-2 2a1 1 0 0 1 1 1 1 1 0 0 1-1 1 1 1 0 0 1-1-1 1 1 0 0 1 1-1zm4 0a1 1 0 0 1 1 1 1 1 0 0 1-1 1 1 1 0 0 1-1-1 1 1 0 0 1 1-1z" fill="currentColor"/>
</svg>
